assets/images/common/social-threads_black.svg

<svg width="24" height="24" viewBox="0 0 24 24" fill="none" xmlns="http://www.w3.org/2000/svg">
<path d="M17.7037 11.2931C17.4087 11.0717 17.0951 10.8763 16.7662 10.7091C16.4175 8.67656 15.2278 7.20187 13.4363 6.65906C11.4319 6.05156 9.12094 6.78937 8.0625 8.37562C7.98051 8.49874 7.92356 8.6368 7.89492 8.78192C7.86629 8.92704 7.86651 9.07638 7.89559 9.22141C7.92466 9.36645 7.98202 9.50433 8.06439 9.6272C8.14675 9.75007 8.25251 9.85551 8.37562 9.9375C8.62427 10.1031 8.9285 10.1631 9.22141 10.1044C9.51432 10.0457 9.77191 9.87302 9.9375 9.62438C10.4503 8.85563 11.7291 8.49187 12.7884 8.8125C13.0859 8.90064 13.3627 9.04763 13.6023 9.24474C13.842 9.44186 14.0396 9.68508 14.1834 9.96C13.9075 9.93182 13.6302 9.91774 13.3528 9.91781C10.1775 9.91781 7.875 11.7394 7.875 14.25C7.875 16.3969 9.51937 17.955 11.7853 17.955C12.4379 17.9513 13.083 17.8166 13.6826 17.559C14.2821 17.3013 14.8239 16.9259 15.2756 16.455C15.8381 15.8709 16.4831 14.9119 16.7494 13.4484C17.3306 14.0503 17.625 14.8237 17.625 15.7537C17.625 17.4169 15.8372 19.8787 12 19.8787C7.71 19.8787 5.625 17.3025 5.625 12.0037C5.625 6.705 7.71 4.12875 12 4.12875C14.9137 4.12875 16.7813 5.29313 17.7 7.69125C17.8072 7.96973 18.0206 8.19423 18.2933 8.31537C18.5659 8.4365 18.8756 8.44435 19.1541 8.33719C19.4325 8.23002 19.657 8.01662 19.7782 7.74393C19.8993 7.47124 19.9072 7.1616 19.8 6.88312C18.5409 3.60375 15.8438 1.875 12 1.875C6.43781 1.875 3.375 5.47031 3.375 12C3.375 18.5297 6.43781 22.125 12 22.125C14.94 22.125 16.7888 20.9953 17.8228 20.0484C19.1072 18.87 19.875 17.2631 19.875 15.75C19.875 13.9088 19.125 12.3675 17.7037 11.2931ZM13.6537 14.8922C13.4125 15.1458 13.1229 15.3484 12.8019 15.488C12.481 15.6276 12.1353 15.7014 11.7853 15.705C11.0194 15.705 10.125 15.3244 10.125 14.25C10.125 12.8194 11.7975 12.1678 13.3509 12.1678C13.7772 12.1673 14.202 12.2151 14.6175 12.3103C14.565 13.3997 14.235 14.2884 13.6537 14.8922Z" fill="#222222"/>
</svg>

<svg xmlns="http://www.w3.org/2000/svg" width="24" height="24" fill="none"><path fill="#222" d="M17.704 11.293a6.4 6.4 0 0 0-.938-.584c-.348-2.032-1.538-3.507-3.33-4.05-2.004-.607-4.315.13-5.373 1.717a1.127 1.127 0 0 0 1.874 1.248c.513-.768 1.792-1.132 2.851-.812a2.32 2.32 0 0 1 1.395 1.148 8 8 0 0 0-.83-.042c-3.175 0-5.478 1.821-5.478 4.332 0 2.147 1.644 3.705 3.91 3.705a4.88 4.88 0 0 0 3.49-1.5c.563-.584 1.208-1.543 1.474-3.007.582.602.876 1.376.876 2.306 0 1.663-1.788 4.125-5.625 4.125-4.29 0-6.375-2.577-6.375-7.875 0-5.299 2.085-7.875 6.375-7.875 2.914 0 4.781 1.164 5.7 3.562a1.125 1.125 0 0 0 2.1-.808c-1.26-3.28-3.956-5.008-7.8-5.008C6.438 1.875 3.375 5.47 3.375 12S6.438 22.125 12 22.125c2.94 0 4.789-1.13 5.823-2.077 1.284-1.178 2.052-2.785 2.052-4.298 0-1.841-.75-3.383-2.171-4.457m-4.05 3.6a2.61 2.61 0 0 1-1.869.812c-.766 0-1.66-.38-1.66-1.455 0-1.43 1.672-2.082 3.226-2.082.426 0 .851.047 1.266.142-.052 1.09-.382 1.978-.963 2.582"/></svg>
